img/menu-icons/setting-active.svg

<svg width="24" height="24" fill="none" xmlns="http://www.w3.org/2000/svg"><path d="M20.1 9.22c-1.81 0-2.55-1.28-1.65-2.85.52-.91.21-2.07-.7-2.59l-1.73-.99c-.79-.47-1.81-.19-2.28.6l-.11.19c-.9 1.57-2.38 1.57-3.29 0l-.11-.19a1.641 1.641 0 0 0-2.26-.6l-1.73.99c-.91.52-1.22 1.69-.7 2.6.91 1.56.17 2.84-1.64 2.84-1.04 0-1.9.85-1.9 1.9v1.76c0 1.04.85 1.9 1.9 1.9 1.81 0 2.55 1.28 1.64 2.85-.52.91-.21 2.07.7 2.59l1.73.99c.79.47 1.81.19 2.28-.6l.11-.19c.9-1.57 2.38-1.57 3.29 0l.11.19c.47.79 1.49 1.07 2.28.6l1.73-.99c.91-.52 1.22-1.69.7-2.59-.91-1.57-.17-2.85 1.64-2.85 1.04 0 1.9-.85 1.9-1.9v-1.76a1.92 1.92 0 0 0-1.91-1.9zM12 15.25c-1.79 0-3.25-1.46-3.25-3.25S10.21 8.75 12 8.75s3.25 1.46 3.25 3.25-1.46 3.25-3.25 3.25z" fill="#41FFB4"/></svg>

<svg width="24" height="24" viewBox="0 0 24 24" fill="none" xmlns="http://www.w3.org/2000/svg">
<path d="M20.1 9.22C18.29 9.22 17.55 7.94 18.45 6.37C18.97 5.46 18.66 4.3 17.75 3.78L16.02 2.79C15.23 2.32 14.21 2.6 13.74 3.39L13.63 3.58C12.73 5.15 11.25 5.15 10.34 3.58L10.23 3.39C9.78 2.6 8.76 2.32 7.97 2.79L6.24 3.78C5.33 4.3 5.02 5.47 5.54 6.38C6.45 7.94 5.71 9.22 3.9 9.22C2.86 9.22 2 10.07 2 11.12V12.88C2 13.92 2.85 14.78 3.9 14.78C5.71 14.78 6.45 16.06 5.54 17.63C5.02 18.54 5.33 19.7 6.24 20.22L7.97 21.21C8.76 21.68 9.78 21.4 10.25 20.61L10.36 20.42C11.26 18.85 12.74 18.85 13.65 20.42L13.76 20.61C14.23 21.4 15.25 21.68 16.04 21.21L17.77 20.22C18.68 19.7 18.99 18.53 18.47 17.63C17.56 16.06 18.3 14.78 20.11 14.78C21.15 14.78 22.01 13.93 22.01 12.88V11.12C22 10.08 21.15 9.22 20.1 9.22ZM12 15.25C10.21 15.25 8.75 13.79 8.75 12C8.75 10.21 10.21 8.75 12 8.75C13.79 8.75 15.25 10.21 15.25 12C15.25 13.79 13.79 15.25 12 15.25Z" fill="#41FFB4"/>
</svg>
